Action/resize.svg

<svg version="1.1" id="Capa_1" xmlns="http://www.w3.org/2000/svg" x="0" y="0" viewBox="0 0 24 24" style="enable-background:new 0 0 24 24" xml:space="preserve"><style>.st0{fill:#263238}</style><path class="st0" d="M23.5 0h-8.1c-.2 0-.4.2-.4.5s.2.5.5.5h7L1.3 22.1c-.2.2-.2.5 0 .6.1.1.2.1.3.1s.2 0 .3-.1L23.1 1.6v7c0 .3.2.5.5.5s.4-.3.4-.6v-8c0-.3-.2-.5-.5-.5z"/><path class="st0" d="M8.5 23.1H.9v-7.6c0-.3-.2-.5-.5-.5s-.4.2-.4.5v8.1c0 .2.2.4.5.4h8.1c.2 0 .4-.2.4-.5s-.2-.4-.5-.4z"/></svg>

<?xml version="1.0" encoding="utf-8"?>
<!-- Generator: Adobe Illustrator 25.4.1, SVG Export Plug-In . SVG Version: 6.00 Build 0)  -->
<svg version="1.1" id="Capa_1" xmlns="http://www.w3.org/2000/svg" xmlns:xlink="http://www.w3.org/1999/xlink" x="0px" y="0px"
	 viewBox="0 0 24 24" style="enable-background:new 0 0 24 24;" xml:space="preserve">
<style type="text/css">
	.st0{fill:#263238;}
</style>
<g>
	<path class="st0" d="M23.5,0h-8.1C15.2,0,15,0.2,15,0.5s0.2,0.5,0.5,0.5h7L1.3,22.1c-0.2,0.2-0.2,0.5,0,0.6
		c0.1,0.1,0.2,0.1,0.3,0.1s0.2,0,0.3-0.1L23.1,1.6v7c0,0.3,0.2,0.5,0.5,0.5S24,8.8,24,8.5V0.5C24,0.2,23.8,0,23.5,0z"/>
	<path class="st0" d="M8.5,23.1H0.9v-7.6c0-0.3-0.2-0.5-0.5-0.5S0,15.2,0,15.5v8.1C0,23.8,0.2,24,0.5,24h8.1C8.8,24,9,23.8,9,23.5
		S8.8,23.1,8.5,23.1z"/>
</g>
</svg>
